app/images/logo-caps.svg

<svg fill="none" height="15" viewBox="0 0 137 15" width="137" xmlns="http://www.w3.org/2000/svg"><path d="m7.85095 12.981c3.03795-1.4695 5.05585-3.11759 6.08395-4.81051.8705-1.43352.9789-2.83127.4323-3.98114-.4963-1.04407-1.5046-1.78957-2.6661-1.98166-1.2397-.20503-2.50131.23314-3.50154 1.31827l-.34861.37821-.34862-.37821c-1.00022-1.08513-2.26185-1.5233-3.50156-1.31827-1.16146.19209-2.16978.93759-2.66608 1.98166-.546596 1.14987-.43819 2.54762.43235 3.98114 1.02807 1.69292 3.04594 3.34101 6.08391 4.81051z" fill="#fff" stroke="#bf0020" stroke-linecap="round" stroke-linejoin="round" stroke-width="1.13919"/><path d="m7.54162 8.85085-.8265.42468c-.08447.0434-.18895.01169-.23337-.07083-.0177-.03287-.02381-.07052-.01738-.10712l.15792-.8999c.03696-.21058-.03449-.42544-.19106-.57461l-.66899-.63733c-.06832-.06509-.0697-.17197-.00307-.23873.02652-.02657.06126-.04386.09886-.0492l.92424-.13126c.2165-.03075.40364-.16361.50043-.35529l.41332-.81851c.04223-.08361.14584-.11796.23143-.07671.03409.01644.06169.0434.07851.07671l.41332.81851c.09679.19168.28394.32454.50043.35529l.92425.13126c.09444.01341.15984.09908.14615.19135-.00547.03673-.02317.07067-.05037.09658l-.66899.63733c-.15657.14917-.22801.36403-.19106.57461l.15793.8999c.01613.0919-.04706.17917-.14112.19493-.03746.00627-.07599.00031-.10963-.01698l-.82651-.42468c-.19367-.09951-.42507-.09951-.61874 0z" fill="#18a1e6"/><path d="m25.1063 5.385v6.615h-2.205v-6.615h-1.8113v-1.8675h5.8275v1.8675zm5.5595 1.40625h3.1837v-3.27375h2.205v8.4825h-2.205v-3.49875h-3.1837v3.49875h-2.205v-8.4825h2.205zm12.5551-1.40625h-2.6213v1.4175h2.475v1.8675h-2.475v1.4625h2.6213v1.8675h-4.8263v-8.4825h4.8263zm10.6667 1.8675h4.3763c0 .45-.0188.85875-.0563 1.22625s-.1125.70875-.225 1.02375c-.1575.4425-.3712.8362-.6412 1.1812-.27.3375-.5888.6225-.9563.855-.36.225-.7575.3975-1.1925.5176-.435.12-.8925.18-1.3725.18-.66 0-1.2637-.1088-1.8112-.3263-.54-.2175-1.005-.5213-1.395-.9113-.39-.3975-.6938-.87-.9113-1.41745-.2175-.555-.3262-1.16625-.3262-1.83375 0-.66.105-1.26375.315-1.81125.2175-.555.5212-1.0275.9112-1.4175.3975-.39.8738-.69375 1.4288-.91125s1.1737-.32625 1.8562-.32625c.885 0 1.6613.19125 2.3288.57375s1.1962.975 1.5862 1.7775l-2.0925.86625c-.195-.465-.45-.79875-.765-1.00125-.3075-.2025-.66-.30375-1.0575-.30375-.33 0-.63.06375-.9.19125-.27.12-.5025.29625-.6975.52875-.1875.225-.3375.49875-.45.82125-.105.3225-.1575.6825-.1575 1.08 0 .36.045.69375.135 1.00125.0975.3075.24.57375.4275.79875s.42.4012.6975.5287c.2775.12.6.18.9675.18.2175 0 .4275-.0225.63-.0675.2025-.0525.3825-.1312.54-.2362.165-.1125.3-.255.405-.4275s.1763-.3825.2138-.63h-1.8113zm8.2562.50625c0 .3375.0637.64875.1912.93375s.3.5325.5175.7425.4688.375.7538.495c.2925.1125.6.1687.9225.1687s.6262-.0562.9112-.1687c.2925-.12.5475-.285.765-.495.225-.21.4013-.4575.5288-.7425s.1912-.59625.1912-.93375-.0637-.64875-.1912-.93375-.3038-.5325-.5288-.7425c-.2175-.21-.4725-.37125-.765-.48375-.285-.12-.5887-.18-.9112-.18s-.63.06-.9225.18c-.285.1125-.5363.27375-.7538.48375s-.39.4575-.5175.7425-.1912.59625-.1912.93375zm-2.3063 0c0-.63.1163-1.215.3488-1.755.2325-.5475.555-1.02375.9675-1.42875s.9037-.72 1.4737-.945c.5775-.2325 1.2113-.34875 1.9013-.34875.6825 0 1.3125.11625 1.89.34875.5775.225 1.0725.54 1.485.945.42.405.7462.88125.9787 1.42875.2325.54.3488 1.125.3488 1.755s-.1163 1.21875-.3488 1.76625c-.2325.54-.5587 1.0125-.9787 1.4175-.4125.405-.9075.7237-1.485.9562-.5775.2251-1.2075.3376-1.89.3376-.69 0-1.3238-.1125-1.9013-.3376-.57-.2325-1.0612-.5512-1.4737-.9562s-.735-.8775-.9675-1.4175c-.2325-.5475-.3488-1.13625-.3488-1.76625zm13.2729 0c0 .3375.0637.64875.1912.93375s.3.5325.5175.7425.4688.375.7538.495c.2925.1125.6.1687.9225.1687s.6262-.0562.9112-.1687c.2925-.12.5475-.285.765-.495.225-.21.4013-.4575.5288-.7425s.1912-.59625.1912-.93375-.0637-.64875-.1912-.93375-.3038-.5325-.5288-.7425c-.2175-.21-.4725-.37125-.765-.48375-.285-.12-.5887-.18-.9112-.18s-.63.06-.9225.18c-.285.1125-.5363.27375-.7538.48375s-.39.4575-.5175.7425-.1912.59625-.1912.93375zm-2.3063 0c0-.63.1163-1.215.3488-1.755.2325-.5475.555-1.02375.9675-1.42875s.9037-.72 1.4737-.945c.5775-.2325 1.2113-.34875 1.9013-.34875.6825 0 1.3125.11625 1.89.34875.5775.225 1.0725.54 1.485.945.42.405.7462.88125.9787 1.42875.2325.54.3488 1.125.3488 1.755s-.1163 1.21875-.3488 1.76625c-.2325.54-.5587 1.0125-.9787 1.4175-.4125.405-.9075.7237-1.485.9562-.5775.2251-1.2075.3376-1.89.3376-.69 0-1.3238-.1125-1.9013-.3376-.57-.2325-1.0612-.5512-1.4737-.9562s-.735-.8775-.9675-1.4175c-.2325-.5475-.3488-1.13625-.3488-1.76625zm13.5541 2.37375h.5062c.3825 0 .7238-.06 1.0238-.18s.5512-.285.7537-.495c.21-.21.3675-.4575.4725-.7425.1125-.2925.1688-.61125.1688-.95625 0-.3375-.0563-.6525-.1688-.945s-.2737-.54375-.4837-.75375c-.2025-.21-.4538-.375-.7538-.495s-.6375-.18-1.0125-.18h-.5062zm-2.205-6.615h3.2625c.5775 0 1.1175.11625 1.62.34875.51.2325.9525.54375 1.3275.93375.3825.3825.6825.8325.9 1.35.2175.51.3262 1.04625.3262 1.60875 0 .555-.1087 1.09125-.3262 1.60875-.21.51-.5063.96-.8888 1.35-.375.39-.8175.7012-1.3275.9337-.5025.2325-1.0462.3488-1.6312.3488h-3.2625zm15.9972 3.8925h.7312c.81 0 1.2154-.3525 1.2154-1.0575s-.4054-1.0575-1.2154-1.0575h-.7312zm0 4.59h-2.205v-8.4825h3.51c.9526 0 1.6796.2475 2.1826.7425.51.495.765 1.1925.765 2.0925s-.255 1.5975-.765 2.0925c-.503.495-1.23.7425-2.1826.7425h-1.305zm10.1216-3.15-.99-2.82375-.99 2.82375zm.585 1.6762h-3.15l-.506 1.4738h-2.351l3.229-8.4825h2.407l3.229 8.4825h-2.351zm6.59-3.21745h.417c.435 0 .768-.09 1.001-.27.232-.18.349-.43875.349-.77625s-.117-.59625-.349-.77625c-.233-.18-.566-.27-1.001-.27h-.417zm4.849 4.69125h-2.745l-2.104-3.2625v3.2625h-2.205v-8.4825h3.432c.472 0 .885.07125 1.237.21375.353.135.641.3225.866.5625.233.24.405.5175.518.8325.12.315.18.6525.18 1.0125 0 .645-.158 1.17-.473 1.575-.307.3975-.765.6675-1.372.81zm4.713-6.615v6.615h-2.205v-6.615h-1.811v-1.8675h5.828v1.8675zm5.952 2.5425-3.094-4.41h2.632l1.575 2.3175 1.564-2.3175h2.633l-3.105 4.41v4.0725h-2.205z" fill="#484848"/></svg>

<svg width="137" height="15" viewBox="0 0 137 15" fill="none" xmlns="http://www.w3.org/2000/svg">
<path d="M7.85095 12.981C10.8889 11.5115 12.9068 9.86341 13.9349 8.17049C14.8054 6.73697 14.9138 5.33922 14.3672 4.18935C13.8709 3.14528 12.8626 2.39978 11.7011 2.20769C10.4614 2.00266 9.19979 2.44083 8.19956 3.52596L7.85095 3.90417L7.50233 3.52596C6.50211 2.44083 5.24048 2.00266 4.00077 2.20769C2.83931 2.39978 1.83099 3.14528 1.33469 4.18935C0.788094 5.33922 0.8965 6.73697 1.76704 8.17049C2.79511 9.86341 4.81298 11.5115 7.85095 12.981Z" fill="white" stroke="#BF0020" stroke-width="1.13919" stroke-linecap="round" stroke-linejoin="round"/>
<path d="M7.54162 8.85085L6.71512 9.27553C6.63065 9.31893 6.52617 9.28722 6.48175 9.2047C6.46405 9.17183 6.45794 9.13418 6.46437 9.09758L6.62229 8.19768C6.65925 7.9871 6.5878 7.77224 6.43123 7.62307L5.76224 6.98574C5.69392 6.92065 5.69254 6.81377 5.75917 6.74701C5.78569 6.72044 5.82043 6.70315 5.85803 6.69781L6.78227 6.56655C6.99877 6.5358 7.18591 6.40294 7.2827 6.21126L7.69602 5.39275C7.73825 5.30914 7.84186 5.27479 7.92745 5.31604C7.96154 5.33248 7.98914 5.35944 8.00596 5.39275L8.41928 6.21126C8.51607 6.40294 8.70322 6.5358 8.91971 6.56655L9.84396 6.69781C9.9384 6.71122 10.0038 6.79689 9.99011 6.88916C9.98464 6.92589 9.96694 6.95983 9.93974 6.98574L9.27075 7.62307C9.11418 7.77224 9.04274 7.9871 9.07969 8.19768L9.23762 9.09758C9.25375 9.18948 9.19056 9.27675 9.0965 9.29251C9.05904 9.29878 9.02051 9.29282 8.98687 9.27553L8.16036 8.85085C7.96669 8.75134 7.73529 8.75134 7.54162 8.85085Z" fill="#18A1E6"/>
<path d="M25.1063 5.385V12H22.9013V5.385H21.09V3.5175H26.9175V5.385H25.1063ZM30.6658 6.79125H33.8495V3.5175H36.0545V12H33.8495V8.50125H30.6658V12H28.4608V3.5175H30.6658V6.79125ZM43.2209 5.385H40.5996V6.8025H43.0746V8.67H40.5996V10.1325H43.2209V12H38.3946V3.5175H43.2209V5.385ZM53.8876 7.2525H58.2639C58.2639 7.7025 58.2451 8.11125 58.2076 8.47875C58.1701 8.84625 58.0951 9.1875 57.9826 9.5025C57.8251 9.945 57.6114 10.3387 57.3414 10.6837C57.0714 11.0212 56.7526 11.3062 56.3851 11.5387C56.0251 11.7637 55.6276 11.9362 55.1926 12.0563C54.7576 12.1763 54.3001 12.2363 53.8201 12.2363C53.1601 12.2363 52.5564 12.1275 52.0089 11.91C51.4689 11.6925 51.0039 11.3887 50.6139 10.9987C50.2239 10.6012 49.9201 10.1287 49.7026 9.58125C49.4851 9.02625 49.3764 8.415 49.3764 7.7475C49.3764 7.0875 49.4814 6.48375 49.6914 5.93625C49.9089 5.38125 50.2126 4.90875 50.6026 4.51875C51.0001 4.12875 51.4764 3.825 52.0314 3.6075C52.5864 3.39 53.2051 3.28125 53.8876 3.28125C54.7726 3.28125 55.5489 3.4725 56.2164 3.855C56.8839 4.2375 57.4126 4.83 57.8026 5.6325L55.7101 6.49875C55.5151 6.03375 55.2601 5.7 54.9451 5.4975C54.6376 5.295 54.2851 5.19375 53.8876 5.19375C53.5576 5.19375 53.2576 5.2575 52.9876 5.385C52.7176 5.505 52.4851 5.68125 52.2901 5.91375C52.1026 6.13875 51.9526 6.4125 51.8401 6.735C51.7351 7.0575 51.6826 7.4175 51.6826 7.815C51.6826 8.175 51.7276 8.50875 51.8176 8.81625C51.9151 9.12375 52.0576 9.39 52.2451 9.615C52.4326 9.84 52.6651 10.0162 52.9426 10.1437C53.2201 10.2637 53.5426 10.3237 53.9101 10.3237C54.1276 10.3237 54.3376 10.3012 54.5401 10.2562C54.7426 10.2037 54.9226 10.125 55.0801 10.02C55.2451 9.9075 55.3801 9.765 55.4851 9.5925C55.5901 9.42 55.6614 9.21 55.6989 8.9625H53.8876V7.2525ZM62.1438 7.75875C62.1438 8.09625 62.2075 8.4075 62.335 8.6925C62.4625 8.9775 62.635 9.225 62.8525 9.435C63.07 9.645 63.3213 9.81 63.6063 9.93C63.8988 10.0425 64.2063 10.0987 64.5288 10.0987C64.8513 10.0987 65.155 10.0425 65.44 9.93C65.7325 9.81 65.9875 9.645 66.205 9.435C66.43 9.225 66.6063 8.9775 66.7338 8.6925C66.8613 8.4075 66.925 8.09625 66.925 7.75875C66.925 7.42125 66.8613 7.11 66.7338 6.825C66.6063 6.54 66.43 6.2925 66.205 6.0825C65.9875 5.8725 65.7325 5.71125 65.44 5.59875C65.155 5.47875 64.8513 5.41875 64.5288 5.41875C64.2063 5.41875 63.8988 5.47875 63.6063 5.59875C63.3213 5.71125 63.07 5.8725 62.8525 6.0825C62.635 6.2925 62.4625 6.54 62.335 6.825C62.2075 7.11 62.1438 7.42125 62.1438 7.75875ZM59.8375 7.75875C59.8375 7.12875 59.9538 6.54375 60.1863 6.00375C60.4188 5.45625 60.7413 4.98 61.1538 4.575C61.5663 4.17 62.0575 3.855 62.6275 3.63C63.205 3.3975 63.8388 3.28125 64.5288 3.28125C65.2113 3.28125 65.8413 3.3975 66.4188 3.63C66.9963 3.855 67.4913 4.17 67.9038 4.575C68.3238 4.98 68.65 5.45625 68.8825 6.00375C69.115 6.54375 69.2313 7.12875 69.2313 7.75875C69.2313 8.38875 69.115 8.9775 68.8825 9.525C68.65 10.065 68.3238 10.5375 67.9038 10.9425C67.4913 11.3475 66.9963 11.6662 66.4188 11.8987C65.8413 12.1238 65.2113 12.2363 64.5288 12.2363C63.8388 12.2363 63.205 12.1238 62.6275 11.8987C62.0575 11.6662 61.5663 11.3475 61.1538 10.9425C60.7413 10.5375 60.4188 10.065 60.1863 9.525C59.9538 8.9775 59.8375 8.38875 59.8375 7.75875ZM73.1104 7.75875C73.1104 8.09625 73.1741 8.4075 73.3016 8.6925C73.4291 8.9775 73.6016 9.225 73.8191 9.435C74.0366 9.645 74.2879 9.81 74.5729 9.93C74.8654 10.0425 75.1729 10.0987 75.4954 10.0987C75.8179 10.0987 76.1216 10.0425 76.4066 9.93C76.6991 9.81 76.9541 9.645 77.1716 9.435C77.3966 9.225 77.5729 8.9775 77.7004 8.6925C77.8279 8.4075 77.8916 8.09625 77.8916 7.75875C77.8916 7.42125 77.8279 7.11 77.7004 6.825C77.5729 6.54 77.3966 6.2925 77.1716 6.0825C76.9541 5.8725 76.6991 5.71125 76.4066 5.59875C76.1216 5.47875 75.8179 5.41875 75.4954 5.41875C75.1729 5.41875 74.8654 5.47875 74.5729 5.59875C74.2879 5.71125 74.0366 5.8725 73.8191 6.0825C73.6016 6.2925 73.4291 6.54 73.3016 6.825C73.1741 7.11 73.1104 7.42125 73.1104 7.75875ZM70.8041 7.75875C70.8041 7.12875 70.9204 6.54375 71.1529 6.00375C71.3854 5.45625 71.7079 4.98 72.1204 4.575C72.5329 4.17 73.0241 3.855 73.5941 3.63C74.1716 3.3975 74.8054 3.28125 75.4954 3.28125C76.1779 3.28125 76.8079 3.3975 77.3854 3.63C77.9629 3.855 78.4579 4.17 78.8704 4.575C79.2904 4.98 79.6166 5.45625 79.8491 6.00375C80.0816 6.54375 80.1979 7.12875 80.1979 7.75875C80.1979 8.38875 80.0816 8.9775 79.8491 9.525C79.6166 10.065 79.2904 10.5375 78.8704 10.9425C78.4579 11.3475 77.9629 11.6662 77.3854 11.8987C76.8079 12.1238 76.1779 12.2363 75.4954 12.2363C74.8054 12.2363 74.1716 12.1238 73.5941 11.8987C73.0241 11.6662 72.5329 11.3475 72.1204 10.9425C71.7079 10.5375 71.3854 10.065 71.1529 9.525C70.9204 8.9775 70.8041 8.38875 70.8041 7.75875ZM84.3582 10.1325H84.8644C85.2469 10.1325 85.5882 10.0725 85.8882 9.9525C86.1882 9.8325 86.4394 9.6675 86.6419 9.4575C86.8519 9.2475 87.0094 9 87.1144 8.715C87.2269 8.4225 87.2832 8.10375 87.2832 7.75875C87.2832 7.42125 87.2269 7.10625 87.1144 6.81375C87.0019 6.52125 86.8407 6.27 86.6307 6.06C86.4282 5.85 86.1769 5.685 85.8769 5.565C85.5769 5.445 85.2394 5.385 84.8644 5.385H84.3582V10.1325ZM82.1532 3.5175H85.4157C85.9932 3.5175 86.5332 3.63375 87.0357 3.86625C87.5457 4.09875 87.9882 4.41 88.3632 4.8C88.7457 5.1825 89.0457 5.6325 89.2632 6.15C89.4807 6.66 89.5894 7.19625 89.5894 7.75875C89.5894 8.31375 89.4807 8.85 89.2632 9.3675C89.0532 9.8775 88.7569 10.3275 88.3744 10.7175C87.9994 11.1075 87.5569 11.4187 87.0469 11.6512C86.5444 11.8837 86.0007 12 85.4157 12H82.1532V3.5175ZM98.1504 7.41H98.8816C99.6916 7.41 100.097 7.0575 100.097 6.3525C100.097 5.6475 99.6916 5.295 98.8816 5.295H98.1504V7.41ZM98.1504 12H95.9454V3.5175H99.4554C100.408 3.5175 101.135 3.765 101.638 4.26C102.148 4.755 102.403 5.4525 102.403 6.3525C102.403 7.2525 102.148 7.95 101.638 8.445C101.135 8.94 100.408 9.1875 99.4554 9.1875H98.1504V12ZM108.272 8.85L107.282 6.02625L106.292 8.85H108.272ZM108.857 10.5262H105.707L105.201 12H102.85L106.079 3.5175H108.486L111.715 12H109.364L108.857 10.5262ZM115.447 7.30875H115.864C116.299 7.30875 116.632 7.21875 116.865 7.03875C117.097 6.85875 117.214 6.6 117.214 6.2625C117.214 5.925 117.097 5.66625 116.865 5.48625C116.632 5.30625 116.299 5.21625 115.864 5.21625H115.447V7.30875ZM120.296 12H117.551L115.447 8.7375V12H113.242V3.5175H116.674C117.146 3.5175 117.559 3.58875 117.911 3.73125C118.264 3.86625 118.552 4.05375 118.777 4.29375C119.01 4.53375 119.182 4.81125 119.295 5.12625C119.415 5.44125 119.475 5.77875 119.475 6.13875C119.475 6.78375 119.317 7.30875 119.002 7.71375C118.695 8.11125 118.237 8.38125 117.63 8.52375L120.296 12ZM125.009 5.385V12H122.804V5.385H120.993V3.5175H126.821V5.385H125.009ZM130.961 7.9275L127.867 3.5175H130.499L132.074 5.835L133.638 3.5175H136.271L133.166 7.9275V12H130.961V7.9275Z" fill="#484848"/>
</svg>
